X:1
T:90tresVoces
T:
I:linebreak !
L:1/4
K:Bbmaj
V:1 clef=treble
[K:Bbmaj]d4 |c4 |B4|d4|e4|g4|f4|e4|d4!|[K:Cmaj]c4 |B4 |c4|d4|e4|f4|d4|e4|B4|c4|
V:2 clef=treble
[K:Bbmaj]z2 F2- |F2 E2- |E2 G2-|G2 F2-|F2 E2-|E2 c2-|c2B2-|B2 A2|B4!|[K:Cmaj]z2 E2- |E2 D2 |E2 c2-|c2 B2-|B2 A2-|A2 B2-|B2A2-|A2 G2-|G2 F2|E4|
V:3 clef=bass
[K:Bbmaj]B,,4 |C,4 |E,4|D,4|G,4|E,4|D,4|C,4|B,,4!|[K:Cmaj]C,4 |G,4|E,4|D,4|C,4|D,4|F,4|E,4|D,4|C,4|
W:La cuarta especie presenta problemas especialmente interesantes si la sincopación 
W:de las blancas se halla en la voz media (ejem. 90). 
W:Aparecen progresiones que más adelante encontraremos en forma elab�rada.